src/icons/redux.svg

<svg width="64" height="62" viewBox="0 0 64 62" fill="none" xmlns="http://www.w3.org/2000/svg">
<g clip-path="url(#clip0)">
<path d="M44.3452 42.4357C46.707 42.1912 48.4987 40.1552 48.4172 37.7117C48.336 35.2684 46.2997 33.3137 43.8565 33.3137H43.6937C41.1687 33.3952 39.2142 35.5127 39.2957 38.0374C39.3772 39.2592 39.8657 40.3179 40.5987 41.0509C37.8297 46.5079 33.5947 50.4987 27.2422 53.8379C22.9257 56.1184 18.4465 56.9329 13.9672 56.3629C10.3022 55.8742 7.45175 54.2454 5.65975 51.5574C3.05375 47.5667 2.8095 43.2499 5.0085 38.9334C6.556 35.8384 8.999 33.5579 10.5465 32.4177C10.2207 31.3589 9.732 29.5672 9.48775 28.2642C-2.3215 36.8159 -1.09975 48.3812 2.48375 53.8379C5.17125 57.9104 10.628 60.4352 16.6547 60.4352C18.2835 60.4352 19.9122 60.2722 21.5412 59.8652C31.966 57.8289 39.866 51.6389 44.3452 42.4357V42.4357ZM58.6792 32.3364C52.4895 25.0877 43.368 21.0969 32.9432 21.0969H31.6402C30.9072 19.6309 29.3597 18.6534 27.6495 18.6534H27.4865C24.962 18.7349 23.0075 20.8524 23.0887 23.3774C23.1702 25.8207 25.2062 27.7754 27.6495 27.7754H27.8122C29.604 27.6939 31.1515 26.5537 31.803 25.0062H33.269C39.4587 25.0062 45.3225 26.7979 50.6165 30.3002C54.6885 32.9879 57.6205 36.4902 59.2492 40.7252C60.6337 44.1459 60.5522 47.4852 59.0862 50.3359C56.806 54.6524 52.9782 57.0144 47.9287 57.0144C44.671 57.0144 41.5762 56.0369 39.9472 55.3039C39.0515 56.1184 37.4225 57.4214 36.2822 58.2362C39.7845 59.8649 43.368 60.7609 46.7885 60.7609C54.607 60.7609 60.3895 56.4442 62.5885 52.1277C64.9502 47.4037 64.7872 39.2592 58.6792 32.3364V32.3364ZM17.3062 43.8199C17.3877 46.2634 19.4237 48.2179 21.867 48.2179H22.03C24.5547 48.1367 26.5092 46.0189 26.4277 43.4942C26.3465 41.0507 24.3102 39.0962 21.867 39.0962H21.7042C21.5412 39.0962 21.2967 39.0962 21.1342 39.1774C17.795 33.6392 16.4105 27.6124 16.8992 21.0967C17.2247 16.2099 18.8537 11.9747 21.7042 8.47244C24.066 5.45894 28.6267 3.99294 31.7217 3.91169C40.3545 3.74869 44.0192 14.4994 44.2637 18.8162C45.3225 19.0604 47.1142 19.6307 48.336 20.0379C47.3585 6.84394 39.2142 0.00244141 31.396 0.00244141C24.066 0.00244141 17.3062 5.29644 14.6185 13.1152C10.8722 23.5402 13.3155 33.5579 17.8762 41.4582C17.4692 42.0282 17.2247 42.9242 17.3062 43.8202V43.8199Z" fill="#764ABC"/>
</g>
<defs>
<clipPath id="clip0">
<rect width="64" height="61.0048" fill="white"/>
</clipPath>
</defs>
</svg>

<svg xmlns="http://www.w3.org/2000/svg" fill="none" viewBox="0 0 64 62"><defs/><g clip-path="url(#clip0)"><path fill="#764ABC" d="M44.35 42.44a4.57 4.57 0 00-.49-9.12h-.17a4.56 4.56 0 00-3.1 7.73c-2.76 5.46-7 9.45-13.35 12.79a22.02 22.02 0 01-13.27 2.52c-3.67-.49-6.52-2.11-8.31-4.8-2.6-4-2.85-8.31-.65-12.63 1.55-3.1 3.99-5.37 5.54-6.51a43.91 43.91 0 01-1.06-4.16c-11.81 8.56-10.59 20.12-7 25.58 2.68 4.07 8.14 6.6 14.16 6.6 1.63 0 3.26-.17 4.9-.57 10.42-2.04 18.32-8.23 22.8-17.43zm14.33-10.1C52.49 25.09 43.37 21.1 32.94 21.1h-1.3a4.48 4.48 0 00-4-2.45h-.15a4.56 4.56 0 00.16 9.13h.16a4.59 4.59 0 004-2.77h1.46c6.19 0 12.05 1.79 17.35 5.29 4.07 2.69 7 6.19 8.63 10.43 1.38 3.42 1.3 6.76-.16 9.6-2.28 4.32-6.11 6.68-11.16 6.68-3.26 0-6.35-.97-7.98-1.7-.9.8-2.53 2.11-3.67 2.93a25.14 25.14 0 0010.5 2.52c7.83 0 13.6-4.32 15.8-8.63 2.37-4.73 2.2-12.87-3.9-19.8zM17.3 43.82a4.57 4.57 0 004.56 4.4h.16a4.56 4.56 0 00-.16-9.12h-.17c-.16 0-.4 0-.57.08A29.84 29.84 0 0116.9 21.1a21.85 21.85 0 014.8-12.63C24.07 5.46 28.63 4 31.72 3.91c8.63-.16 12.3 10.59 12.54 14.9 1.06.25 2.85.82 4.08 1.23C47.36 6.84 39.2 0 31.4 0c-7.33 0-14.1 5.3-16.78 13.12-3.75 10.42-1.3 20.44 3.26 28.34-.41.57-.66 1.46-.57 2.36z"/></g><defs><clipPath id="clip0"><path fill="#fff" d="M0 0h64v61H0z"/></clipPath></defs></svg>
